X:1
T:Title
%%score { ( 1 4 ) | ( 2 3 ) }
L:1/8
M:4/4
K:Eb
V:1 treble nm="Grand Piano"
V:4 treble 
V:2 bass 
V:3 bass 
V:1
 z4 z2[Q:1/4=100] E2 | G2 B2 [GB]2 [_Gc]2 | [B,GB]4 [EG]2 [B,EG]2 | %3
 [B,EG]2 .[B,EF]2 [CEA]2 [DFA]2 | [B,EG]6 [B,E]2 | z4 z2 [Gc]2 |[M:3/4] [_Gd]4 [=Gd]2 | %7
[M:1/4] [Fd]2 |[M:4/4] [Ee]2 [B,EG]2 [=A,EF]2 [Ec]2 | [DB]6 [DB]2 | [_DB]2 [DB]2 [CB]2 =E-[EG] | %11
 [CF]2 [B,=EG]2 [CFA]2 [=B,FA]2 | [B,FA]2 [B,EA]2 [B,DA]2 GF |[M:2/4][K:bass] B,2 z2 | [B,_DE]4 | %15
[M:4/4] [CE]4[K:treble] G2 F2 | E4 z4 | [CF]2 [CE][CF] [_DG]2 [DF][EG] | z2 [E=A]2 z4 | %19
 [Ee]4 [EGB]2 [B,EG]2 | [G,B,E]4 [DF]4 |[M:3/4] [G,E]6 |] %22
V:2
 z4 z2 [E,G,]2 | [E,B,]2 [E,G,E]2 [E,B,]2 [E,A,]2 | E,2 G,2 B,2 E,2 | B,,2 z G B,,2 B,,2 | %4
 E,6 G,2 | E,2 E,2 E,2 .[E,=A,]2 |[M:3/4] [D,=A,]4 [G,=B,]2 |[M:1/4] [G,=B,]2 | %8
[M:4/4] [C,C]2 D,E, F,2 [F,=A,]2 | [B,,B,]6 [B,,A,]2 | [B,,G,]2 [B,,F,]2 [C,=E,]2 z B, | %11
 A,2 G,2 F,2 E,2 | z4 z2 [D,B,]2 |[M:2/4] z2 C2 | G,,4 |[M:4/4] z2 E,2 A,,4 | %16
 [B,,G,B,]2 [=A,,_G,]2 [B,,F,]2 [G,,E,]2 | [A,,E,]2 [A,,E,][A,,E,] [B,,E,]2 [B,,B,][_D,B,] | %18
 [C,A,]2 .[=B,,E,]2 [_B,,G,]2 [=A,,_G,]2 | [B,,G,]4 B,,2 B,,2 | z4 A,4 |[M:3/4] E,6 |] %22
V:3
 x8 | x8 | x8 | z2 B,,2 z4 | x8 | x8 |[M:3/4] x6 |[M:1/4] x2 |[M:4/4] x8 | x8 | z4 z2 C,2 | x8 | %12
 C,2 C,2 B,,2 B,,A,, |[M:2/4] G,,4 | x4 |[M:4/4] A,,4 z4 | x8 | x8 | x8 | x8 | B,,8 |[M:3/4] x6 |] %22
V:4
 x8 | x8 | x8 | x8 | x8 | [B,EG]2 [EGB]2 [B,GB]2 z G, |[M:3/4] x6 |[M:1/4] x2 |[M:4/4] x8 | x8 | %10
 z4 z2 .[CA]2 | x8 | x8 |[M:2/4][K:bass] [E,E]4 | x4 |[M:4/4] B,2 z2[K:treble] [A,C]4 | %16
 z2 C2 D2 [B,E]2 | x8 | [EA]2 z F, [EB]2 [Ec]2 | x8 | x8 |[M:3/4] x6 |] %22

